X:139
T: ICH WAR JUENGLING NOCH BEI JAHREN
N: B0169
O: Europa, Mitteleuropa, Deutschland
R: Ballade, Romanze
M: 4/4
L: 1/8
K: C
G,C | E3DDCCB, | B,3A,A,2
DD | C3CB,2A,B, | C4z2
G,C | E3DDCCB, | B,3A,A,2
DD | C3CB,2A,B, | C4z2
A,A, | D3D^C2DE | F3ED2
DD | C3DC2C2 | D6
G,G, | C2D2E2D2 | C3B,C2
^CC | D3DC2B,2 | D6
G,G, | C2D2E2D2 | C3B,C2
^CC | D3DC2B,2 | C4z2

@@@ Tune index: 1942
